X: 248
T: The Hop Ground
%R: jig
Z: 2014 John Chambers <jc:trillian.mit.edu>
B: Preston "Twenty four Country Dances for the Year 1794" p.104 #2
F: http://www.vwml.org/browse/browse-collections-dance-tune-books/browse-prestons1794# 2014-8-10
M: 6/8
L: 1/8
K: D
|:\
Add fed | gfe fed | Add fed | gee cdB |\
Add fed | gfe fed | fga gfe | fdd cdB :|
|:\
AFA Bcd | Add Bdd | AFA Bcd | efg fed |\
AFA Bcd | Add Bdd | fga gee | fdd cdB :|
% - - - - - - - - - - - - - - - - - - - - - - - - -
%%begintext align
%% The 1st Cu: set to the 2d Lady & turn .|
%%     Set to the 2d Gent.n and turn :|
%%       Cross over 1 Cu: & turn :|.
%%            Right & left :|:
%%endtext
% - - - - - - - - - - - - - - - - - - - - - - - - -

%%sep 1 1 500
%%sep 1 1 500
